svg/transport/fan_2_line.svg

<?xml version="1.0" encoding="UTF-8"?>
<svg width="24px" height="24px" viewBox="0 0 24 24" version="1.1" xmlns="http://www.w3.org/2000/svg" xmlns:xlink="http://www.w3.org/1999/xlink">
    <title>fan_2_line</title>
    <g id="页面-1" stroke="none" stroke-width="1" fill="none" fill-rule="evenodd">
        <g id="Transport" transform="translate(-528.000000, -96.000000)">
            <g id="fan_2_line" transform="translate(528.000000, 96.000000)">
                 <path d="M24,0 L24,24 L0,24 L0,0 L24,0 Z M12.5934901,23.257841 L12.5819402,23.2595131 L12.5108777,23.2950439 L12.4918791,23.2987469 L12.4918791,23.2987469 L12.4767152,23.2950439 L12.4056548,23.2595131 C12.3958229,23.2563662 12.3870493,23.2590235 12.3821421,23.2649074 L12.3780323,23.275831 L12.360941,23.7031097 L12.3658947,23.7234994 L12.3769048,23.7357139 L12.4804777,23.8096931 L12.4953491,23.8136134 L12.4953491,23.8136134 L12.5071152,23.8096931 L12.6106902,23.7357139 L12.6232938,23.7196733 L12.6232938,23.7196733 L12.6266527,23.7031097 L12.609561,23.275831 C12.6075724,23.2657013 12.6010112,23.2592993 12.5934901,23.257841 L12.5934901,23.257841 Z M12.8583906,23.1452862 L12.8445485,23.1473072 L12.6598443,23.2396597 L12.6498822,23.2499052 L12.6498822,23.2499052 L12.6471943,23.2611114 L12.6650943,23.6906389 L12.6699349,23.7034178 L12.6699349,23.7034178 L12.678386,23.7104931 L12.8793402,23.8032389 C12.8914285,23.8068999 12.9022333,23.8029875 12.9078286,23.7952264 L12.9118235,23.7811639 L12.8776777,23.1665331 C12.8752882,23.1545897 12.8674102,23.1470016 12.8583906,23.1452862 L12.8583906,23.1452862 Z M12.1430473,23.1473072 C12.1332178,23.1423925 12.1221763,23.1452606 12.1156365,23.1525954 L12.1099173,23.1665331 L12.0757714,23.7811639 C12.0751323,23.7926639 12.0828099,23.8018602 12.0926481,23.8045676 L12.108256,23.8032389 L12.3092106,23.7104931 L12.3186497,23.7024347 L12.3186497,23.7024347 L12.3225043,23.6906389 L12.340401,23.2611114 L12.337245,23.2485176 L12.337245,23.2485176 L12.3277531,23.2396597 L12.1430473,23.1473072 Z" id="MingCute" fill-rule="nonzero"></path>
                <path d="M8.69,5 C6.65207,5 5,6.65207 5,8.69 C5,9.38244 5.19012,10.0296 5.52175,10.5831 C6.42714,9.97531 7.5176,9.62 8.69,9.62 C9.86238,9.62 10.9529,9.9753 11.8582,10.5831 C12.1899,10.0296 12.38,9.38244 12.38,8.69 C12.38,7.66824 11.966,6.74505 11.2942,6.07579 C10.6258,5.40988 9.70672,5 8.69,5 Z M10.5831,12.1417 C10.0296,11.8101 9.38244,11.62 8.69,11.62 C7.66824,11.62 6.74505,12.034 6.07579,12.7058 C5.40988,13.3742 5,14.2933 5,15.31 C5,17.3479 6.65207,19 8.69,19 C9.38244,19 10.0296,18.8099 10.5831,18.4782 C9.97531,17.5729 9.62,16.4824 9.62,15.31 C9.62,14.1376 9.97531,13.0471 10.5831,12.1417 Z M12,19.9386 C11.0677,20.6062 9.92424,21 8.69,21 C5.5475,21 3,18.4525 3,15.31 C3,14.0758 3.39379,12.9323 4.06143,12 C3.39379,11.0677 3,9.92424 3,8.69 C3,5.5475 5.5475,3 8.69,3 C9.92424,3 11.0677,3.39379 12,4.06143 C12.9323,3.39379 14.0758,3 15.31,3 C18.4525,3 21,5.5475 21,8.69 C21,9.92424 20.6062,11.0677 19.9386,12 C20.6062,12.9323 21,14.0758 21,15.31 C21,18.4525 18.4525,21 15.31,21 C14.0758,21 12.9323,20.6062 12,19.9386 Z M18.4782,13.4169 C17.5729,14.0247 16.4824,14.38 15.31,14.38 C14.1376,14.38 13.0471,14.0247 12.1417,13.4169 C11.8101,13.9704 11.62,14.6176 11.62,15.31 C11.62,16.3318 12.034,17.2549 12.7058,17.9242 C13.3742,18.5901 14.2933,19 15.31,19 C17.3479,19 19,17.3479 19,15.31 C19,14.6176 18.8099,13.9704 18.4782,13.4169 Z M13.4169,11.8582 C13.9704,12.1899 14.6176,12.38 15.31,12.38 C16.3318,12.38 17.2549,11.966 17.9242,11.2942 C18.5901,10.6258 19,9.70672 19,8.69 C19,6.65207 17.3479,5 15.31,5 C14.6176,5 13.9704,5.19012 13.4169,5.52175 C14.0247,6.42714 14.38,7.5176 14.38,8.69 C14.38,9.86238 14.0247,10.9529 13.4169,11.8582 Z" id="形状" fill="#09244B"></path>
            </g>
        </g>
    </g>
</svg>

<svg xmlns="http://www.w3.org/2000/svg" width="24" height="24"><g fill="none" fill-rule="evenodd"><path d="M24 0v24H0V0h24ZM12.593 23.258l-.011.002-.071.035-.02.004-.014-.004-.071-.035c-.01-.004-.019-.001-.024.005l-.004.01-.017.428.005.02.01.013.104.074.015.004.012-.004.104-.074.012-.016.004-.017-.017-.427c-.002-.01-.009-.017-.017-.018Zm.265-.113-.013.002-.185.093-.01.01-.003.011.018.43.005.012.008.007.201.093c.012.004.023 0 .029-.008l.004-.014-.034-.614c-.003-.012-.01-.02-.02-.022Zm-.715.002a.023.023 0 0 0-.027.006l-.006.014-.034.614c0 .012.007.02.017.024l.015-.002.201-.093.01-.008.004-.011.017-.43-.003-.012-.01-.01-.184-.092Z"/><path fill="#09244B" d="M8.69 5a3.69 3.69 0 0 0-3.168 5.583A5.667 5.667 0 0 1 8.69 9.62c1.172 0 2.263.355 3.168.963a3.67 3.67 0 0 0 .522-1.893 3.675 3.675 0 0 0-1.086-2.614A3.675 3.675 0 0 0 8.69 5Zm1.893 7.142a3.67 3.67 0 0 0-1.893-.522 3.675 3.675 0 0 0-2.614 1.086 3.69 3.69 0 0 0 4.507 5.772 5.667 5.667 0 0 1-.963-3.168c0-1.172.355-2.263.963-3.168ZM12 19.939A5.69 5.69 0 0 1 4.061 12 5.69 5.69 0 0 1 12 4.061 5.69 5.69 0 0 1 19.939 12 5.69 5.69 0 0 1 12 19.939Zm6.478-6.522a5.666 5.666 0 0 1-3.168.963 5.667 5.667 0 0 1-3.168-.963 3.67 3.67 0 0 0-.522 1.893c0 1.022.414 1.945 1.086 2.614a3.69 3.69 0 0 0 5.772-4.507Zm-5.061-1.559a3.67 3.67 0 0 0 1.893.522 3.675 3.675 0 0 0 2.614-1.086 3.69 3.69 0 0 0-4.507-5.772c.608.905.963 1.996.963 3.168a5.667 5.667 0 0 1-.963 3.168Z"/></g></svg>
